X:1
T:Title
%%score { 1 | 2 }
L:1/8
M:3/4
K:F
V:1 treble nm="Grand Piano"
V:2 bass 
V:1
 z2 z2[Q:1/4=100] [FA][GB] | [Ac]3 A dc | c2 A2 FG | A3 A [GB][FA] | [EG]4 [FA][GB] | [Ac]3 A dc | %6
 c2 A2 F[FG] | [FA]3 [CF] [FA][EG] |[M:2/4] F4 |[M:1/4] Ac |[M:3/4] [Af]3 A Bc | d2 c2 [Gc][Ad] | %12
 e3 d c=B | [Ec]4 [Ec][GB] | A3 c dc | c2 A2 [CF][DFG] | [CFA]3 [A,CF] [CFA][B,EG] | %17
[M:2/4] [A,F]4 |] %18
V:2
 z2 z2 [F,C][F,C] | [F,C]3 [F,CF] [F,B,F][F,A,F] | [F,A,F]2 [F,CF]2 [A,C][G,CE] | %3
 [F,CF]3 [F,CF] [E,C][F,C] | [C,C]4 [F,C][F,C] | [F,C]3 [F,CF] [F,B,F][F,A,F] | %6
 [F,A,F]2 [F,CF]2 [D,=B,][D,B,] | [C,C]3 [C,A,] [C,C][C,B,] |[M:2/4] [F,A,]4 | %9
[M:1/4] [F,CF][F,A,F] |[M:3/4] [F,C]3 [F,CF] [F,DF][F,A,F] | [F,B,F]2 [F,A,F]2 [E,C][F,C] | %12
 [G,CG]3 [G,=B,F] [G,CE][G,F] | [C,G,]4 [C,G,][E,C] | [F,CF]3 [F,A,F] [F,B,F][F,A,F] | %15
 [F,A,F]2 [F,CF]2 A,,B,, | C,3 C, C,C, |[M:2/4] F,4 |] %18

